X: 123101
T: MEG MERRILEES
P: Country Dance.
%R: reel
B: James Kerr "Merry Melodies" v.1 p.23 s.1 #1
Z: 2017 John Chambers <jc:trillian.mit.edu>
M: C
L: 1/8
K: A
vcd |\
edcd eagf | (fe)ee e2cd |\
efec eaec | (cB)BB B2cd |\
edcd eagf | (fe)ee e2cd |\
efec BABc | (BA)AA A2 :|
ue2 |\
^defe =dcdB | ceAe ceAe |\
^defe =dcdB | (BA)AA A2 ue2 |\
^defe =dcdB | ceAe ceAe |\
dcde fefg | (ba)aa a2 |]

%%sep 1 1 500
%%sep 1 1 500

